assets/Firefighter/Dark/Flat/firefighter_flat_dark.svg

<svg width="32" height="32" viewBox="0 0 32 32" fill="none" xmlns="http://www.w3.org/2000/svg">
<path d="M23.5 8H8.65C8.26 8.32 7.88 8.64 7.5 8.96V11C7.5 15.69 11.31 19.5 16 19.5C20.69 19.5 24.5 15.69 24.5 11V9.31C24.15 8.89 23.82 8.45 23.5 8Z" fill="#990838"/>
<path d="M16.005 15.5C12.8287 15.5 9.96433 16.846 7.9546 19C7.13548 19.8779 7 22 7 22C7 22 6 24.3963 6 26V28V29L8 30H16H24L26 29V28V26C26 24.3963 25 22 25 22C25 22 24.8406 19.8368 24 18.9466C21.9955 16.8238 19.155 15.5 16.005 15.5Z" fill="#F92F60"/>
<path d="M17.3575 19.5H14.4926C13.4232 19.5 12.55 18.6489 12.55 17.6066V16H19.3V17.6066C19.3 18.6585 18.4269 19.5 17.3575 19.5Z" fill="#990838"/>
<path d="M14.75 16V18.5368C14.75 18.9861 15.0673 19.3612 15.5 19.4689V26H16.5V19.5H17.5283C18.6138 19.5 19.5 18.6512 19.5 17.6117V16H14.75Z" fill="#CA0B4A"/>
<path d="M9.00005 18C6.57005 20.03 4.99005 23.09 5.00005 26.5V30H9.00005V18Z" fill="#CA0B4A"/>
<path d="M23 18V30H27V26.5C27 23.09 25.45 20.02 23 18Z" fill="#CA0B4A"/>
<path d="M23 26H9V30H23V26Z" fill="#FCD53F"/>
<path d="M21.2501 5.28989C20.9501 4.76989 21.4801 4.40989 20.9601 4.22989C20.3901 4.03989 19.8901 3.65989 19.5801 3.14989C19.1601 2.45989 18.4001 2.99989 17.5401 2.99989C17.2101 2.99989 16.8901 2.06989 16.6101 2.18989C16.2201 2.35989 15.7801 2.35989 15.3901 2.18989C15.1001 2.06989 14.7901 2.99989 14.4601 2.99989C13.6101 2.99989 12.8601 2.43989 12.4401 3.10989C12.1101 3.62989 11.6201 4.02989 11.0301 4.22989C10.4801 4.41989 10.29 5.64989 10 6.19989C9.57 6.99989 9.37006 7.11989 9.86006 7.82989C10.0301 8.08989 10.1301 8.39989 10.1301 8.70989V12.8799C10.1301 13.8099 10.7201 14.6299 11.6001 14.9399L13.4901 15.5899V8.16989C13.6401 8.02989 13.7601 7.85989 13.8701 7.66989C14.0401 7.37989 14.1401 7.05989 14.1701 6.74989C14.2601 6.75989 14.3601 6.76989 14.4501 6.76989C15.0401 6.76989 15.5801 6.55989 15.9901 6.19989C16.4101 6.54989 16.9401 6.76989 17.5301 6.76989C17.6301 6.76989 17.7201 6.75989 17.8101 6.74989C17.8501 7.06989 17.9401 7.37989 18.1101 7.66989C18.2201 7.85989 18.3501 8.01989 18.4901 8.16989V15.5999L20.3801 14.9499C21.2601 14.6499 21.8501 13.8199 21.8501 12.8899V8.71989C21.8501 8.40989 21.9501 8.09989 22.1301 7.83989C22.6501 7.09989 21.7201 6.10989 21.2501 5.28989Z" fill="black"/>
<path d="M12.7701 10.5899C12.7701 11.5122 12.0224 12.2599 11.1001 12.2599C10.1777 12.2599 9.43005 11.5122 9.43005 10.5899C9.43005 9.66761 10.1777 8.91992 11.1001 8.91992C12.0224 8.91992 12.7701 9.66761 12.7701 10.5899Z" fill="#4E3233"/>
<path d="M22.56 10.5899C22.56 11.5122 21.8123 12.2599 20.89 12.2599C19.9677 12.2599 19.22 11.5122 19.22 10.5899C19.22 9.66761 19.9677 8.91992 20.89 8.91992C21.8123 8.91992 22.56 9.66761 22.56 10.5899Z" fill="#4E3233"/>
<path d="M10.75 8.18812C10.8253 6.41802 12.3341 5 14.1775 5H15.4852C15.7669 5 16.0084 5.16585 16.119 5.40976C16.5214 6.27805 17.4167 6.82439 18.3925 6.82439H19.8311C20.6359 6.86341 21.2697 7.51707 21.2495 8.30731L21.2375 8.80981L20.9276 13.6439C20.6559 15.5659 18.976 17 16.974 17H15.0627C13.0708 17 11.3808 15.5659 11.1192 13.6439L10.75 8.18812Z" fill="#573739"/>
<path d="M16.0005 13.7057C15.45 13.7057 14.9301 13.5669 14.4918 13.3212C14.3389 13.2358 14.186 13.4174 14.2777 13.5669C14.6447 14.1542 15.2767 14.5493 16.0005 14.5493C16.7243 14.5493 17.3563 14.1542 17.7233 13.5669C17.8151 13.4174 17.652 13.2465 17.5093 13.3212C17.0607 13.5669 16.551 13.7057 16.0005 13.7057Z" fill="#290118"/>
<path d="M12.18 10.28C12.33 9.65995 12.89 9.19995 13.56 9.19995C14.26 9.19995 14.83 9.68995 14.96 10.35C14.99 10.5 14.88 10.63 14.73 10.63H12.45C12.27 10.63 12.13 10.45 12.18 10.28Z" fill="white"/>
<path d="M19.83 10.28C19.68 9.65995 19.12 9.19995 18.45 9.19995C17.75 9.19995 17.18 9.68995 17.05 10.35C17.02 10.5 17.13 10.63 17.28 10.63H19.56C19.74 10.63 19.87 10.46 19.83 10.28Z" fill="white"/>
<path d="M12.86 10.39C12.86 9.88998 13.27 9.47998 13.77 9.47998C14.28 9.47998 14.69 9.88998 14.68 10.39C14.68 10.47 14.67 10.55 14.65 10.63H12.89C12.87 10.55 12.86 10.47 12.86 10.39Z" fill="#7D4533"/>
<path d="M19.15 10.39C19.15 9.88998 18.74 9.47998 18.24 9.47998C17.73 9.47998 17.33 9.88998 17.33 10.39C17.33 10.47 17.34 10.55 17.36 10.63H19.12C19.14 10.55 19.15 10.47 19.15 10.39Z" fill="#7D4533"/>
<path d="M13.77 9.87012C14.06 9.87012 14.29 10.1001 14.29 10.3901C14.29 10.4801 14.27 10.5601 14.23 10.6301H13.31C13.27 10.5601 13.25 10.4801 13.25 10.3901C13.25 10.1001 13.48 9.87012 13.77 9.87012Z" fill="black"/>
<path d="M18.24 9.87012C17.95 9.87012 17.72 10.1001 17.72 10.3901C17.72 10.4801 17.74 10.5601 17.78 10.6301H18.7C18.74 10.5601 18.76 10.4801 18.76 10.3901C18.76 10.1001 18.53 9.87012 18.24 9.87012Z" fill="black"/>
<path d="M13.62 10.0199C13.62 10.1082 13.5484 10.1799 13.46 10.1799C13.3717 10.1799 13.3 10.1082 13.3 10.0199C13.3 9.9315 13.3717 9.85986 13.46 9.85986C13.5484 9.85986 13.62 9.9315 13.62 10.0199Z" fill="white"/>
<path d="M18.12 10.0199C18.12 10.1082 18.0484 10.1799 17.96 10.1799C17.8717 10.1799 17.8 10.1082 17.8 10.0199C17.8 9.9315 17.8717 9.85986 17.96 9.85986C18.0484 9.85986 18.12 9.9315 18.12 10.0199Z" fill="white"/>
<path d="M15.6541 10.2897L15.1583 12.0282C15.0554 12.384 15.2986 12.75 15.6447 12.75H16.3743C16.7204 12.75 16.9636 12.384 16.8607 12.0282L16.365 10.2897C16.2621 9.90342 15.7663 9.90342 15.6541 10.2897Z" fill="#3D2123"/>
<path d="M12.3451 8.42675C12.3916 8.45985 12.4473 8.4776 12.5044 8.47752C12.5662 8.47719 12.6261 8.45605 12.6744 8.41752C13.1162 8.1244 13.6481 7.99852 14.1744 8.06252C14.21 8.0671 14.2461 8.06448 14.2806 8.0548C14.3151 8.04513 14.3473 8.0286 14.3753 8.0062C14.4033 7.9838 14.4265 7.956 14.4436 7.92444C14.4606 7.89288 14.4711 7.85822 14.4744 7.82252C14.4817 7.75118 14.4608 7.67981 14.4161 7.62372C14.3715 7.56763 14.3066 7.5313 14.2354 7.52252C13.5663 7.43577 12.8888 7.60156 12.3354 7.98752C12.2904 8.02264 12.2575 8.07095 12.2413 8.1257C12.225 8.18044 12.2263 8.23888 12.245 8.29286C12.2636 8.34683 12.2986 8.39364 12.3451 8.42675Z" fill="black"/>
<path d="M19.3464 8.42152C19.3941 8.45778 19.4524 8.47745 19.5124 8.47752C19.5695 8.47795 19.6264 8.46044 19.673 8.42746C19.7197 8.39449 19.7548 8.3477 19.7735 8.2937C19.7921 8.2397 19.7934 8.1812 19.7771 8.12645C19.7607 8.0717 19.7276 8.02346 19.6824 7.98852C19.1283 7.60389 18.4515 7.4379 17.7824 7.52252C17.7119 7.53297 17.6483 7.57045 17.605 7.62703C17.5617 7.6836 17.5421 7.75482 17.5505 7.82557C17.5588 7.89632 17.5943 7.96105 17.6496 8.00603C17.7048 8.05101 17.7754 8.07271 17.8464 8.06652C18.3728 8.00144 18.905 8.12741 19.3464 8.42152Z" fill="black"/>
<path d="M22.5 7L22.5 6.98C22.5 4.23 20.2631 2 17.5046 2H14.4954C11.7369 2 9.5 4.23 9.5 6.98V7C8.4 7 7.5 7.89 7.5 9V10.68C7.5 9.2 8.69 8 10.17 8H21.82C23.3 8 24.5 9.2 24.5 10.68V9C24.5 7.9 23.61 7 22.5 7Z" fill="#F92F60"/>
<path d="M18.75 7H13.25V5.69367C13.25 4.20506 14.4803 3 16 3C17.5197 3 18.75 4.20506 18.75 5.69367V7Z" fill="#321B41"/>
<path d="M15.3468 6.24005C14.964 5.89007 14.75 5.40626 14.75 4.91217V4.78864C14.75 4.62394 14.964 4.55189 15.0878 4.66512L15.1892 4.75776C15.3131 4.87099 15.527 4.78864 15.527 4.63424C15.527 4.24308 15.7523 3.8725 16.1239 3.66663L16.3829 3.52252C16.4955 3.46076 16.6419 3.53281 16.6419 3.65634V4.8607C16.6419 5.06657 16.9122 5.15922 17.0586 5.0254C17.1261 4.96364 17.25 5.00481 17.25 5.09745V5.3445C17.25 5.69449 17.0923 6.02389 16.7995 6.25035C16.5968 6.41505 16.3491 6.4974 16.0788 6.4974H16.0563C15.7973 6.51798 15.5383 6.41505 15.3468 6.24005Z" fill="#F9C23C"/>
<path d="M24 16.3799L22.65 16.0199C22.38 15.9499 22.11 16.1099 22.04 16.3699L18.38 29.9999H20.87L24.36 16.9899C24.42 16.7299 24.26 16.4499 24 16.3799Z" fill="#6D4534"/>
<path d="M21.39 16.9598L25.6 18.0898C26.0107 18.1972 26.4374 18.2288 26.8549 18.1819L28 18.5V18.0898L29 19.5C29.24 20.5702 28.91 20.46 28.5 22C28.09 23.54 27.5471 24.4316 26.749 24.8616C26.669 24.8816 26.38 24.9316 26.33 24.8616L26 24.5C25.8473 24.323 25.4665 24.3839 25.2819 24.2447C24.9345 23.9828 24.5379 23.7908 24.12 23.6798L19.91 22.5498C19.67 22.4898 19.52 22.2598 19.58 22.0398L20.87 17.2298C20.91 17.0198 21.15 16.8998 21.39 16.9598Z" fill="#9B9B9B"/>
<path d="M28.3 21.81C28.68 20.38 28.05 18.92 26.85 18.19C27.09 18.16 27.34 18.11 27.57 18.03L28.02 17.88C28.1 17.85 28.19 17.87 28.26 17.94C29.29 19 29.76 20.56 29.35 22.1C28.94 23.64 27.75 24.76 26.33 25.16C26.25 25.18 26.15 25.16 26.1 25.09L25.79 24.73C25.63 24.54 25.44 24.38 25.25 24.23C26.64 24.19 27.92 23.23 28.3 21.81Z" fill="#D3D3D3"/>
</svg>

<svg xmlns="http://www.w3.org/2000/svg" width="32" height="32" fill="none"><path fill="#990838" d="M23.5 8H8.65c-.39.32-.77.64-1.15.96V11c0 4.69 3.81 8.5 8.5 8.5 4.69 0 8.5-3.81 8.5-8.5V9.31c-.35-.42-.68-.86-1-1.31Z"/><path fill="#F92F60" d="M16.005 15.5a10.98 10.98 0 0 0-8.05 3.5c-.82.878-.955 3-.955 3s-1 2.396-1 4v3l2 1h16l2-1v-3c0-1.604-1-4-1-4s-.16-2.163-1-3.053a10.962 10.962 0 0 0-7.995-3.447Z"/><path fill="#990838" d="M17.358 19.5h-2.865c-1.07 0-1.943-.851-1.943-1.893V16h6.75v1.607c0 1.052-.873 1.893-1.942 1.893Z"/><path fill="#CA0B4A" d="M14.75 16v2.537c0 .45.317.824.75.932V26h1v-6.5h1.028c1.086 0 1.972-.849 1.972-1.888V16h-4.75ZM9 18c-2.43 2.03-4.01 5.09-4 8.5V30h4V18ZM23 18v12h4v-3.5c0-3.41-1.55-6.48-4-8.5Z"/><path fill="#FCD53F" d="M23 26H9v4h14v-4Z"/><path fill="#000" d="M21.25 5.29c-.3-.52.23-.88-.29-1.06a2.56 2.56 0 0 1-1.38-1.08C19.16 2.46 18.4 3 17.54 3c-.33 0-.65-.93-.93-.81-.39.17-.83.17-1.22 0-.29-.12-.6.81-.93.81-.85 0-1.6-.56-2.02.11-.33.52-.82.92-1.41 1.12-.55.19-.74 1.42-1.03 1.97-.43.8-.63.92-.14 1.63.17.26.27.57.27.88v4.17c0 .93.59 1.75 1.47 2.06l1.89.65V8.17c.15-.14.27-.31.38-.5.17-.29.27-.61.3-.92a2.32 2.32 0 0 0 1.82-.55c.42.35.95.57 1.54.57.1 0 .19-.01.28-.02a2.373 2.373 0 0 0 .68 1.42v7.43l1.89-.65c.88-.3 1.47-1.13 1.47-2.06V8.72c0-.31.1-.62.28-.88.52-.74-.41-1.73-.88-2.55Z"/><path fill="#4E3233" d="M12.77 10.59a1.67 1.67 0 1 1-3.34 0 1.67 1.67 0 0 1 3.34 0ZM22.56 10.59a1.67 1.67 0 1 1-3.34 0 1.67 1.67 0 0 1 3.34 0Z"/><path fill="#573739" d="M10.75 8.188C10.825 6.418 12.334 5 14.178 5h1.307c.282 0 .523.166.634.41.402.868 1.298 1.414 2.273 1.414h1.44c.804.04 1.438.693 1.418 1.483l-.012.503-.31 4.834C20.656 15.566 18.976 17 16.974 17h-1.911c-1.992 0-3.682-1.434-3.944-3.356l-.369-5.456Z"/><path fill="#290118" d="M16 13.706c-.55 0-1.07-.14-1.508-.385-.153-.085-.306.096-.214.246.367.587.999.982 1.722.982.724 0 1.356-.395 1.723-.982.092-.15-.071-.32-.214-.246a3.118 3.118 0 0 1-1.509.385Z"/><path fill="#fff" d="M12.18 10.28c.15-.62.71-1.08 1.38-1.08.7 0 1.27.49 1.4 1.15a.23.23 0 0 1-.23.28h-2.28c-.18 0-.32-.18-.27-.35ZM19.83 10.28c-.15-.62-.71-1.08-1.38-1.08-.7 0-1.27.49-1.4 1.15-.03.15.08.28.23.28h2.28c.18 0 .31-.17.27-.35Z"/><path fill="#7D4533" d="M12.86 10.39c0-.5.41-.91.91-.91a.9.9 0 0 1 .91.91c0 .08-.01.16-.03.24h-1.76a.986.986 0 0 1-.03-.24ZM19.15 10.39c0-.5-.41-.91-.91-.91-.51 0-.91.41-.91.91 0 .08.01.16.03.24h1.76c.02-.08.03-.16.03-.24Z"/><path fill="#000" d="M13.77 9.87a.516.516 0 0 1 .46.76h-.92a.516.516 0 0 1 .46-.76ZM18.24 9.87a.516.516 0 0 0-.46.76h.92a.516.516 0 0 0-.46-.76Z"/><path fill="#fff" d="M13.62 10.02a.16.16 0 1 1-.32 0 .16.16 0 0 1 .32 0ZM18.12 10.02a.16.16 0 1 1-.32 0 .16.16 0 0 1 .32 0Z"/><path fill="#3D2123" d="m15.654 10.29-.496 1.738c-.103.356.14.722.487.722h.73c.345 0 .589-.366.486-.722l-.496-1.738c-.103-.387-.599-.387-.71 0Z"/><path fill="#000" d="M12.345 8.427a.274.274 0 0 0 .33-.01 2.227 2.227 0 0 1 1.5-.354.267.267 0 0 0 .3-.24.274.274 0 0 0-.24-.3 2.712 2.712 0 0 0-1.9.465.274.274 0 0 0 .01.439ZM19.346 8.422a.275.275 0 0 0 .327.005.273.273 0 0 0 .01-.438 2.731 2.731 0 0 0-1.9-.466.274.274 0 0 0 .063.544 2.215 2.215 0 0 1 1.5.355Z"/><path fill="#F92F60" d="M22.5 7v-.02C22.5 4.23 20.263 2 17.505 2h-3.01C11.737 2 9.5 4.23 9.5 6.98V7a2 2 0 0 0-2 2v1.68C7.5 9.2 8.69 8 10.17 8h11.65c1.48 0 2.68 1.2 2.68 2.68V9a2 2 0 0 0-2-2Z"/><path fill="#321B41" d="M18.75 7h-5.5V5.694C13.25 4.205 14.48 3 16 3s2.75 1.205 2.75 2.694V7Z"/><path fill="#F9C23C" d="M15.347 6.24a1.807 1.807 0 0 1-.597-1.328V4.79c0-.165.214-.237.338-.124l.101.093c.124.113.338.03.338-.124 0-.39.225-.762.597-.967l.259-.144c.113-.062.259.01.259.133v1.205c0 .206.27.298.417.164.067-.061.191-.02.191.072v.247c0 .35-.158.68-.45.906-.203.165-.45.247-.721.247h-.023a.957.957 0 0 1-.71-.257Z"/><path fill="#6D4534" d="m24 16.38-1.35-.36a.5.5 0 0 0-.61.35L18.38 30h2.49l3.49-13.01a.52.52 0 0 0-.36-.61Z"/><path fill="#9B9B9B" d="m21.39 16.96 4.21 1.13c.41.107.837.139 1.255.092L28 18.5v-.41l1 1.41c.24 1.07-.09.96-.5 2.5-.41 1.54-.953 2.432-1.751 2.862-.08.02-.369.07-.419 0L26 24.5c-.153-.177-.534-.116-.718-.255a3.372 3.372 0 0 0-1.162-.565l-4.21-1.13c-.24-.06-.39-.29-.33-.51l1.29-4.81c.04-.21.28-.33.52-.27Z"/><path fill="#D3D3D3" d="M28.3 21.81c.38-1.43-.25-2.89-1.45-3.62.24-.03.49-.08.72-.16l.45-.15c.08-.03.17-.01.24.06a4.353 4.353 0 0 1 1.09 4.16 4.338 4.338 0 0 1-3.02 3.06c-.08.02-.18 0-.23-.07l-.31-.36a3.64 3.64 0 0 0-.54-.5c1.39-.04 2.67-1 3.05-2.42Z"/></svg>
